icons/svg/clapperboard.svg

﻿<?xml version="1.0" encoding="utf-8"?>
<!DOCTYPE svg PUBLIC "-//W3C//DTD SVG 1.1//EN" "http://www.w3.org/Graphics/SVG/1.1/DTD/svg11.dtd">
<svg xmlns="http://www.w3.org/2000/svg" xmlns:xlink="http://www.w3.org/1999/xlink" version="1.1" baseProfile="full" width="24" height="24" viewBox="0 0 24.00 24.00" enable-background="new 0 0 24.00 24.00" xml:space="preserve">
	<path fill="#000000" fill-opacity="1" stroke-width="0.2" stroke-linejoin="round" d="M 21.9999,4.00001L 21.9997,18.0001C 21.9997,19.1046 21.1043,20.0001 19.9997,20.0001L 3.99969,20.0001C 2.89511,20.0001 1.99969,19.1046 1.99969,18.0001L 1.99969,6.00013C 1.99969,4.89556 2.89511,4.00013 3.99969,4.00013L 4.73207,4.00013L 7.61871,8.99993L 10.6187,8.99993L 7.73206,4.00013L 9.73209,4.00013L 12.6187,8.99991L 15.6187,8.99991L 12.7321,4.00013L 14.7321,4.00013L 17.6187,8.99993L 20.6187,8.99993L 17.7321,4.00013L 21.9999,4.00001 Z "/>
</svg>

<svg xmlns="http://www.w3.org/2000/svg" version="1.1" baseProfile="full" width="24" height="24" viewBox="0 0 24.00 24.00" xml:space="preserve"><path fill="#000" fill-opacity="1" stroke-width=".2" stroke-linejoin="round" d="M22 4v14c0 1.105-.896 2-2 2H4c-1.105 0-2-.895-2-2V6c0-1.104.895-2 2-2h.732L7.62 9h3L7.73 4h2l2.887 5h3L12.73 4h2l2.887 5h3L17.73 4H22z"/></svg>
